X:3915
T:Dark-Haired Lass
M:C
L:1/8
K:A Dorian
AB|cAAB cdec|d2gd BGGB|cBAB cdec|dfec A3B|!
cAAB cdec|d2gd BGGB|cBAB cdeg|fdec A2:|!
AB|cdef g2eg|f2df gfed|cdef g2eg|fdec A3B|!
cdef g2eg|f2df g2fg|afge fdec|dfec A2:|!
